X:1
T:The Three Ravens
M:3/2
L:1/4
K:G
 E| E F G B| A G F2| E3/2 F/2 G A| B3/2 c/2 B| B| E F G E| F G A G/2A/2|\
 B3 B| B d c B| A G F F| G B A G| F ^D B, G/2A/2|
M:3/2
 B2 A/2G/2 F/2E/2 ^D/2E/2 F| E2 z||

